logo/tidal.svg

<?xml version="1.0" encoding="UTF-8"?>
<svg width="512px" height="68px" viewBox="0 0 512 68" version="1.1" xmlns="http://www.w3.org/2000/svg" xmlns:xlink="http://www.w3.org/1999/xlink" preserveAspectRatio="xMidYMid">
    <title>Tidal</title>
    <g fill="#000000">
				<path d="M203.294328,8.50437286 L203.294328,19.7679876 L186.297153,19.7679876 L186.297153,66.3844744 L173.155021,66.3844744 L173.155021,19.7679876 L156.157846,19.7679876 L156.157846,8.50437286 L203.294328,8.50437286 Z M255.841755,8.50505349 L255.841755,66.3844744 L242.622033,66.3844744 L242.622033,8.50505349 L255.841755,8.50505349 Z M489.135863,8.50437286 L489.135863,54.9622747 L512,54.9622747 L512,66.3844744 L475.91614,66.3844744 L475.91614,8.50437286 L489.135863,8.50437286 Z M416.84563,8.50437286 L440.689183,66.3844744 L426.158582,66.3844744 L421.929877,54.9636359 L397.525492,54.9636359 L393.259353,66.3844744 L379.12011,66.3844744 L403.197796,8.50437286 L416.84563,8.50437286 Z M321.267233,8.50437286 C337.068555,8.50437286 352.791606,16.8712601 352.791606,37.2871999 C352.791606,56.5304279 337.380961,66.3831131 322.049949,66.3831131 L299.850779,66.3837938 L299.850779,8.50437286 L321.267233,8.50437286 Z M321.188962,19.7679876 L312.678463,19.7679876 L312.678463,55.0405462 L320.876556,55.0405462 C331.905356,55.0405462 339.259478,48.159457 339.259478,37.2082478 C339.259478,26.8049393 331.827765,19.7679876 321.188962,19.7679876 Z M409.786899,22.0439879 L401.068811,44.6814782 L418.424674,44.6814782 L409.786899,22.0439879 Z"></path>
				<path d="M50.8254537,33.8800058 L67.7668178,50.8220506 L50.8254537,67.7647759 L33.8834089,50.8220506 L50.8254537,33.8800058 Z M16.9413641,0.000680622078 L33.8834089,16.9386417 L16.9413641,33.881367 L0,16.9386417 L16.9413641,0.000680622078 Z M84.7075013,0.000680622078 L101.648185,16.9386417 L84.7075013,33.881367 L67.765,16.939 L50.8254537,33.8800058 L33.8834089,16.9372804 L50.8254537,0 L67.7668178,16.9372804 L84.7075013,0.000680622078 Z"></path>
		</g>
</svg>

<svg viewBox="0 0 512 68" xmlns="http://www.w3.org/2000/svg"><g><path d="M203.29 8.5v11.26h-17v46.61h-13.15V19.75h-17V8.48h47.13Zm52.54 0v57.87h-13.22V8.49h13.21Zm233.29-.01v46.45h22.86v11.42h-36.09V8.47h13.21Zm-72.3 0l23.84 57.88h-14.54l-4.23-11.43h-24.41l-4.27 11.42h-14.14l24.07-57.89h13.64Zm-95.58 0c15.8 0 31.52 8.36 31.52 28.78 0 19.24-15.42 29.09-30.75 29.09l-22.2 0V8.48h21.41Zm-.08 11.26h-8.52v35.27h8.19c11.02 0 18.38-6.89 18.38-17.84 0-10.41-7.44-17.45-18.08-17.45Zm88.59 2.27l-8.72 22.63h17.35l-8.64-22.64Z"/><path d="M50.82 33.88l16.94 16.94 -16.95 16.94 -16.95-16.95L50.8 33.86ZM16.93 0l16.94 16.93 -16.95 16.94L-.03 16.92 16.91-.02Zm67.76-.001l16.94 16.93 -16.95 16.94 -16.95-16.95 -16.94 16.94L33.84 16.9 50.78-.04l16.94 16.93L84.66-.05Z"/></g></svg>
